X:2
T:I'm A Fool To Want You
C:Wolf, Herron, Sinatra
L:1/4
M:C
I:linebreak $
K:Bb
"D7" z ^C/D/ B3/2 ^F/ S|:"Gm6" A/G/- G3 |"Dø" z ^F/G/"G7" e3/2 =B/ |"Cm" d/c/- c3 |
"Aø" z c d e |$"Cm" e d"Co" A B |"Aø" c G"Bbo" A B Ox/||1"Cm" d A"Eb7" c B |
"D7" A ^C/D/ B3/2 ^F/ :|2$"Cm" d A"D7" c B |"Gm6" G4 ||"Cm" g/g/ g3- |"F7" g g g g |"Dm" g2 g2 |$
"G7" f4 |"Cm" e/e/ e3- |"F7" e e e d |"Bb" d4- |"Eb" d4 ||"Aø" c/c/ c3- |$"D7" c c c c |
"Gm6" c2 B2- | B4 |"Eø" B/B/ B3- |"Eb7" B B B A |"D7" A4- |$
"D7" A ^C/D/ B3/2 "_D.S. al Coda" ^F/ ||O"Cm" f e d c |"Aø" d ^C/D/"Ab7" B3/2 ^F/ |"Gm6" A G3- |
G z z2 |]

